X: 1
T: The Shetland Shepherdess
T: 8x32S 3C (Derek Haynes, 3rd Graded)
T: knot, set-adv to crnr, circl4; repeat 2cnrs; r3 opp-sides
C: Ron Wallace
C: arr. by Terry Traub, 5-14-2015
M: 6/8
L: 1/8
R: Jig
K: A
|: E|"A"AGA "E"c2 B|"A"Ace "D"f2 a|"A"ecc cBc|"D"fBB "E"dcB|"A"AGA "E"c2 B|"A"Ace "D"f2 g|"A"aec "E"Bcd|"A"cAA A2 :|
e|"F#m"faf fec|"A"ABc e2 a|"D"fec "A"e2 f|"Bm"fBB "E"B2 e|"F#m"faf "E"fec|"A"ABc efg|"A"aec "E"Bcd |"A"cAA A2 e||
"F#m"faf fec|"A"ABc e2 a|"D"fec "A"e2 f|"Bm"fBB "E"dcB|"A"AGA "E"c2 B|"A"Ace "D"f2 g|"A"aec "E"Bcd|"A"cAA A2 |]
